tools/download-figma-icons/icons/outlined-medium/browser-settings.svg

<svg width="24" height="24" viewBox="0 0 24 24" fill="none" xmlns="http://www.w3.org/2000/svg">
<path fill-rule="evenodd" clip-rule="evenodd" d="M1.5 4.4685V6H22.5V4.4685C22.5 3.6585 21.8258 3 20.9955 3H3.0045C2.17425 3 1.5 3.6585 1.5 4.4685ZM3.0045 1.5H20.9955C22.6523 1.5 24 2.83125 24 4.4685V17.2815C24 18.9188 22.6523 20.25 20.9955 20.25C20.5807 20.25 20.2455 19.914 20.2455 19.5C20.2455 19.086 20.5807 18.75 20.9955 18.75C21.8258 18.75 22.5 18.0915 22.5 17.2815V7.5H1.5V16.9065C1.5 17.736 2.1945 18.75 3.0045 18.75C3.41925 18.75 3.7545 19.086 3.7545 19.5C3.7545 19.914 3.41925 20.25 3.0045 20.25C1.28475 20.25 0 18.4845 0 16.9065V4.4685C0 2.83125 1.34775 1.5 3.0045 1.5ZM15.7501 15.7499C15.7501 15.5302 15.7291 15.3059 15.6841 15.0652L15.5881 14.5447L16.9216 13.7744L16.1716 12.4754L14.8373 13.2457L14.4346 12.9014C14.0851 12.6029 13.6868 12.3734 13.2496 12.2182L12.7501 12.0412V10.4999H11.2501V12.0412L10.7506 12.2182C10.3133 12.3734 9.91507 12.6029 9.56557 12.9014L9.16282 13.2457L7.82782 12.4754L7.07782 13.7744L8.41207 14.5447L8.31607 15.0652C8.27107 15.3059 8.25007 15.5302 8.25007 15.7499C8.25007 15.9704 8.27107 16.1939 8.31607 16.4347L8.41207 16.9559L7.07782 17.7254L7.82782 19.0244L9.16282 18.2542L9.56557 18.5984C9.91507 18.8969 10.3133 19.1272 10.7506 19.2817L11.2501 19.4587V20.9999H12.7501V19.4587L13.2496 19.2817C13.6868 19.1272 14.0851 18.8969 14.4346 18.5984L14.8373 18.2542L16.1716 19.0244L16.9216 17.7254L15.5881 16.9559L15.6841 16.4347C15.7291 16.1939 15.7501 15.9704 15.7501 15.7499ZM17.3873 11.5822L18.3031 13.1669C18.6698 13.8052 18.4508 14.6227 17.8148 14.9909L17.2313 15.3277C17.2441 15.4694 17.2501 15.6097 17.2501 15.7499C17.2501 15.8902 17.2441 16.0304 17.2313 16.1729L17.8148 16.5089C18.4508 16.8772 18.6698 17.6947 18.3031 18.3321L17.3881 19.9169C17.0191 20.5536 16.2001 20.7727 15.5641 20.4059L14.9806 20.0684C14.7488 20.2282 14.5051 20.3692 14.2501 20.4892V21.1642C14.2501 21.9007 13.6508 22.4999 12.9151 22.4999H11.0851C10.3493 22.4999 9.75007 21.9007 9.75007 21.1642V20.4892C9.49507 20.3692 9.25132 20.2282 9.01957 20.0684L8.43607 20.4059C7.79932 20.7734 6.98107 20.5544 6.61207 19.9177L5.69707 18.3329C5.32957 17.6947 5.54857 16.8772 6.18532 16.5089L6.76807 16.1729C6.75607 16.0304 6.75007 15.8902 6.75007 15.7499C6.75007 15.6097 6.75607 15.4694 6.76807 15.3277L6.18607 14.9916C5.54857 14.6227 5.32957 13.8052 5.69707 13.1677L6.61132 11.5829C6.98032 10.9454 7.79782 10.7264 8.43607 11.0939L9.01957 11.4314C9.25132 11.2717 9.49507 11.1306 9.75007 11.0106V10.3356C9.75007 9.59915 10.3493 8.9999 11.0851 8.9999H12.9151C13.6508 8.9999 14.2501 9.59915 14.2501 10.3356V11.0106C14.5051 11.1306 14.7488 11.2717 14.9806 11.4314L15.5641 11.0939C16.2023 10.7271 17.0198 10.9461 17.3873 11.5822ZM12 13.7501C10.8952 13.7501 9.99975 14.6456 9.99975 15.7503C9.99975 16.8543 10.8952 17.7498 12 17.7498C13.1047 17.7498 14.0002 16.8543 14.0002 15.7503C14.0002 14.6456 13.1047 13.7501 12 13.7501ZM2.25 4.5C2.25 4.086 2.58525 3.75 3 3.75C3.41475 3.75 3.75 4.086 3.75 4.5C3.75 4.914 3.41475 5.25 3 5.25C2.58525 5.25 2.25 4.914 2.25 4.5ZM5.25 3.75C4.83525 3.75 4.5 4.086 4.5 4.5C4.5 4.914 4.83525 5.25 5.25 5.25C5.66475 5.25 6 4.914 6 4.5C6 4.086 5.66475 3.75 5.25 3.75ZM6.75 4.5C6.75 4.086 7.08525 3.75 7.5 3.75C7.91475 3.75 8.25 4.086 8.25 4.5C8.25 4.914 7.91475 5.25 7.5 5.25C7.08525 5.25 6.75 4.914 6.75 4.5Z" fill="black"/>
</svg>

<svg width="24" height="24" viewBox="0 0 24 24" fill="none" xmlns="http://www.w3.org/2000/svg"><path fill-rule="evenodd" clip-rule="evenodd" d="M1.5 4.468V6h21V4.468c0-.81-.674-1.468-1.505-1.468H3.006C2.175 3 1.5 3.659 1.5 4.468ZM3.005 1.5h17.99C22.652 1.5 24 2.831 24 4.468v12.814c0 1.637-1.348 2.968-3.005 2.968a.75.75 0 1 1 0-1.5c.83 0 1.505-.659 1.505-1.468V7.5h-21v9.407c0 .829.695 1.843 1.505 1.843a.75.75 0 1 1 0 1.5C1.285 20.25 0 18.485 0 16.907V4.468C0 2.831 1.348 1.5 3.005 1.5ZM15.75 15.75c0-.22-.02-.444-.066-.685l-.096-.52 1.334-.77-.75-1.3-1.335.77-.402-.344a3.745 3.745 0 0 0-1.185-.683l-.5-.177V10.5h-1.5v1.541l-.5.177a3.744 3.744 0 0 0-1.184.683l-.403.345-1.335-.77-.75 1.298 1.334.77-.096.521c-.045.24-.066.465-.066.685 0 .22.021.444.066.685l.096.52-1.334.77.75 1.3 1.335-.77.403.343c.35.299.747.53 1.185.684l.5.177v1.54h1.5v-1.54l.499-.177a3.732 3.732 0 0 0 1.185-.684l.402-.344 1.335.77.75-1.299-1.334-.77.096-.52c.045-.241.066-.465.066-.685Zm1.637-4.168.916 1.585a1.34 1.34 0 0 1-.488 1.824l-.584.337a4.683 4.683 0 0 1 0 .845l.584.336c.636.368.855 1.186.488 1.823l-.915 1.585a1.34 1.34 0 0 1-1.824.489l-.583-.338c-.232.16-.476.301-.73.421v.675c0 .737-.6 1.336-1.336 1.336h-1.83c-.736 0-1.335-.6-1.335-1.336v-.675a5.148 5.148 0 0 1-.73-.42l-.584.337a1.338 1.338 0 0 1-1.824-.488l-.915-1.585a1.338 1.338 0 0 1 .488-1.824l.583-.336a5.025 5.025 0 0 1 0-.845l-.582-.336a1.338 1.338 0 0 1-.489-1.824l.914-1.585a1.338 1.338 0 0 1 1.825-.49l.584.338c.231-.16.475-.3.73-.42v-.675c0-.737.6-1.336 1.335-1.336h1.83c.736 0 1.335.6 1.335 1.336v.675c.255.12.499.26.73.42l.584-.337a1.338 1.338 0 0 1 1.823.488ZM12 13.75a2 2 0 1 0 0 4 2 2 0 0 0 0-4ZM2.25 4.5a.75.75 0 1 1 1.5 0 .75.75 0 0 1-1.5 0Zm3-.75a.75.75 0 1 0 0 1.5.75.75 0 0 0 0-1.5Zm1.5.75a.75.75 0 1 1 1.5 0 .75.75 0 0 1-1.5 0Z" fill="currentColor"/></svg>
